X: 1369
T: Dad's Jig
B: australian traditional tunes wiki
M:6/8
L:1/8
R: Jig
Q: 3/8=100
K:D
V:1 
B|:"D"AFD DED|"D"FGFF2B|AFD DED|"A7"EAAA2B|"D"AFD DED|
FGFF2d|"A7"c2c "G"dcB|1"D"AFD"A7"E2B:|2Adc"D"d2f/g/||
|:"D"afd dcd|fgff2b|afd dcd|"A7"eaaa2e/f/|"G"gbg "D"faf|
"A7"efe cBA|"D"afd "A7"gec|1"D"d3d2f/g/:|2"D"d3d3||
% abcbook-tune_id 6342d53af145485b8abd4961


% abcbook-boost 0
% abcbook-tablature 
% abcbook-transpose 
% abcbook-lastupdated 1665324361450
% abcbook-soundfonts 
% abcbook-repeats 1
% NFF Book 2010

